build-source/logos/wdr1livediggi.default.svg

<svg xmlns="http://www.w3.org/2000/svg" viewBox="0 0 1024 510" enable-background="new 0 0 1024 510"><g transform="matrix(39.7826 0 0-39.7826-19810.49 7640.82)"><g fill="#ec008c"><path d="m0 0c.192 0 .315-.014.493.082.13.075.233.178.308.308.164.274.219.589.219.904 0 .315-.089.726-.287.986-.226.281-.445.267-.774.267h-.164v-2.547h.205m-1.65 3.615h1.732c.678 0 1.219-.089 1.725-.575.493-.466.719-1.109.719-1.78 0-.616-.219-1.26-.65-1.705-.466-.486-1.048-.637-1.698-.637h-1.828v4.697" transform="translate(507.59 180.47)"/><path d="m512.08 179.39h-1.451v4.697h1.451v-4.697"/><path d="m0 0h-.705l-.192.493c-.294-.397-.787-.561-1.273-.561-1.37 0-2.102 1.054-2.102 2.341 0 .616.157 1.26.547 1.746.446.561 1.014.746 1.705.746 1.089 0 1.815-.554 2.02-1.629l-1.397-.144c-.054.377-.212.733-.65.733-.664 0-.705-.891-.705-1.37 0-.274.013-.616.123-.862.116-.274.342-.452.644-.452.369 0 .643.226.643.595h-.774v.993h2.116v-2.629" transform="translate(516.85 179.39)"/><path d="m0 0h-.705l-.192.493c-.294-.397-.787-.561-1.273-.561-1.37 0-2.102 1.054-2.102 2.341 0 .616.157 1.26.548 1.746.445.561 1.013.746 1.704.746 1.089 0 1.815-.554 2.02-1.629l-1.397-.144c-.054.377-.212.733-.65.733-.664 0-.705-.891-.705-1.37 0-.274.013-.616.123-.862.116-.274.342-.452.644-.452.369 0 .643.226.643.595h-.774v.993h2.116v-2.629" transform="translate(521.51 179.39)"/><path d="m523.58 179.39h-1.451v4.697h1.451v-4.697"/><path d="m498.07 191.92h6.585v-6.56h-6.585v6.56"/></g><path fill="#fff" d="M0,0v-1.222h0.758v-3.503h1.436V0H0z" transform="translate(500.09 190.97)"/><g fill="#231f20"><path d="M0,0h-1.795v4.864h-1.901l-0.001-6.56H0V0z" transform="translate(509.64 187.06)"/><path d="m510.27 191.92h1.901v-6.56h-1.901v6.56"/><path d="M0,0l-1.485-4.548L-2.969,0H-4.87l2.141-6.56h2.489L1.901,0H0z" transform="translate(517.52 191.92)"/><path d="M0,0v1.689h-3.699v-6.56H0l-0.001,1.697h-1.797v0.769H0v1.53h-1.798V0H0z" transform="translate(523.58 190.23)"/></g></g></svg>

<?xml version="1.0" encoding="utf-8"?>
<!-- Generator: Adobe Illustrator 16.0.0, SVG Export Plug-In . SVG Version: 6.00 Build 0)  -->
<!DOCTYPE svg PUBLIC "-//W3C//DTD SVG 1.1//EN" "http://www.w3.org/Graphics/SVG/1.1/DTD/svg11.dtd">
<svg version="1.1"
	 id="svg2" xmlns:rdf="http://www.w3.org/1999/02/22-rdf-syntax-ns#" xmlns:cc="http://creativecommons.org/ns#" xmlns:dc="http://purl.org/dc/elements/1.1/" xmlns:svg="http://www.w3.org/2000/svg" xmlns:sodipodi="http://sodipodi.sourceforge.net/DTD/sodipodi-0.dtd" xmlns:inkscape="http://www.inkscape.org/namespaces/inkscape" inkscape:output_extension="org.inkscape.output.svg.inkscape" sodipodi:version="0.32" inkscape:version="0.46" sodipodi:docname="1LIVE diggi.svg"
	 xmlns="http://www.w3.org/2000/svg" xmlns:xlink="http://www.w3.org/1999/xlink" x="0px" y="0px" width="1024px" height="510px"
	 viewBox="0 0 1024 510" enable-background="new 0 0 1024 510" xml:space="preserve">
<sodipodi:namedview  id="base" showgrid="false" bordercolor="#666666" inkscape:zoom="0.70710678" pagecolor="#ffffff" inkscape:cx="567.27225" borderopacity="1.0" inkscape:cy="127.94885" inkscape:document-units="px" inkscape:window-width="1424" inkscape:current-layer="layer1" inkscape:pageopacity="0.0" inkscape:window-x="0" inkscape:pageshadow="2" inkscape:window-y="14" inkscape:window-height="850">
	</sodipodi:namedview>
<g id="layer1" inkscape:label="Ebene 1" inkscape:groupmode="layer">
	<g id="g6360" transform="matrix(39.782596,0,0,-39.782596,-19810.487,7640.8182)">
		<g>
			<g id="g6362">
				<g id="g6368" transform="translate(507.5911,180.472)">
					<path id="path6370" fill="#EC008C" d="M0,0c0.192,0,0.315-0.014,0.493,0.082C0.623,0.157,0.726,0.26,0.801,0.39
						C0.965,0.664,1.02,0.979,1.02,1.294c0,0.315-0.089,0.726-0.287,0.986C0.507,2.561,0.288,2.547-0.041,2.547h-0.164V0H0z
						 M-1.65,3.615h1.732c0.678,0,1.219-0.089,1.725-0.575C2.3,2.574,2.526,1.931,2.526,1.26c0-0.616-0.219-1.26-0.65-1.705
						C1.41-0.931,0.828-1.082,0.178-1.082H-1.65V3.615z"/>
				</g>
				<path id="path6372" fill="#EC008C" d="M512.075,179.39h-1.451v4.697h1.451V179.39z"/>
				<g id="g6374" transform="translate(516.8542,179.3902)">
					<path id="path6376" fill="#EC008C" d="M0,0h-0.705l-0.192,0.493C-1.191,0.096-1.684-0.068-2.17-0.068
						c-1.37,0-2.102,1.054-2.102,2.341c0,0.616,0.157,1.26,0.547,1.746C-3.279,4.58-2.711,4.765-2.02,4.765
						c1.089,0,1.815-0.554,2.02-1.629l-1.397-0.144c-0.054,0.377-0.212,0.733-0.65,0.733c-0.664,0-0.705-0.891-0.705-1.37
						c0-0.274,0.013-0.616,0.123-0.862c0.116-0.274,0.342-0.452,0.644-0.452c0.369,0,0.643,0.226,0.643,0.595h-0.774v0.993H0V0z"/>
				</g>
				<g id="g6378" transform="translate(521.5098,179.3902)">
					<path id="path6380" fill="#EC008C" d="M0,0h-0.705l-0.192,0.493C-1.191,0.096-1.684-0.068-2.17-0.068
						c-1.37,0-2.102,1.054-2.102,2.341c0,0.616,0.157,1.26,0.548,1.746C-3.279,4.58-2.711,4.765-2.02,4.765
						c1.089,0,1.815-0.554,2.02-1.629l-1.397-0.144c-0.054,0.377-0.212,0.733-0.65,0.733c-0.664,0-0.705-0.891-0.705-1.37
						c0-0.274,0.013-0.616,0.123-0.862c0.116-0.274,0.342-0.452,0.644-0.452c0.369,0,0.643,0.226,0.643,0.595h-0.774v0.993H0V0z"/>
				</g>
				<path id="path6382" fill="#EC008C" d="M523.577,179.39h-1.451v4.697h1.451V179.39z"/>
				<path id="path6384" fill="#EC008C" d="M498.071,191.923h6.585v-6.56h-6.585V191.923z"/>
				<g id="g6386" transform="translate(500.0897,190.9699)">
					<path id="path6388" fill="#FFFFFF" d="M0,0v-1.222h0.758v-3.503h1.436V0H0z"/>
				</g>
				<g id="g6390" transform="translate(509.6425,187.0589)">
					<path id="path6392" fill="#231F20" d="M0,0h-1.795v4.864h-1.901l-0.001-6.56H0V0z"/>
				</g>
				<path id="path6394" fill="#231F20" d="M510.268,191.923h1.901v-6.56h-1.901V191.923z"/>
				<g id="g6396" transform="translate(517.5249,191.9226)">
					<path id="path6398" fill="#231F20" d="M0,0l-1.485-4.548L-2.969,0H-4.87l2.141-6.56h2.489L1.901,0H0z"/>
				</g>
				<g id="g6400" transform="translate(523.583,190.2331)">
					<path id="path6402" fill="#231F20" d="M0,0v1.689h-3.699v-6.56H0l-0.001,1.697h-1.797v0.769H0v1.53h-1.798V0H0z"/>
				</g>
			</g>
		</g>
	</g>
</g>
</svg>
